X: 7
T: King William's March  v.2
P: piffero secondo b0047
O: M.E. Bosse
R: march
F: http://ancients.sudburymuster.org/mus/ssp/pdf/ashgroveF.pdf
Z: 2019 John Chambers <jc:trillian.mit.edu>
M: 2/4
L: 1/16
K: Ador
z2 |\
C6 c2 | BAGF G2D2 | E4 CDE2 | EDCB, A,2z2 |\
C6 c2 | F4   GFED | E4 ^G4  | C4 z2 :|
|: B2 |\
c3d  B3A  | B2c2 B4 | cde2 f2g2 | edcB A2E2 |\
B2c2 B2c2 | F4 B2cd | e4  ^G4   | C4   z2  :|

%%center (4 bar drum bridge)


